X:1
T:Title
L:1/8
M:3/8
K:Eb
V:1 treble nm="Grand Piano"
V:1
 z z[Q:1/4=100] G | c2 B | B2 G | E2 F | G2 F | B2 G | G2 D | F2 E/D/ | C2 C | F2 F | =E2 E | %11
 G2 G | _G2 G | A2 A | G2 G | A2 =B | c3 | z z =B/c/ | d2 B | =B2 A | GFA | G2 A | G2 F | E2 D | %24
 C3- | C z =B/c/ | d2 B | =B2 A | GFA | G2 G | A2 A | =B2 B | c3- | c z c | c2 G | G2 D | F2 E/D/ | %37
 C3- | C2 z |] %39

